X:1
T:Title
%%score ( 1 2 ) { 3 | 4 }
L:1/8
Q:1/4=115
M:9/8
K:E
V:1 treble nm="Grand Piano, Staff 1"
V:2 treble 
V:3 bass nm="Choir Pad, Amara, 87.87 D"
V:4 bass 
V:1
 E2 [EF] [EG]3 [EG]3 | [GB][FA][EG] [DF]3 [DF]3 | [DF]2 [EG] [FA]3 [FA]3 | [Ac][GB][FA] [EG]6 | %4
w: By~William~Oscar~Perkins~(1831\-1902) * * *||||
 E2 [EF] [EG]3 [EG]3 | [GB][FA][EG] [DF]3 [DF]3 | [DF]2 [EG] [FA]3- [FA]2 [FA] | [FA][EG][DF] E6 | %8
w: ||||
 [EB]2 [EB] [Ec]3 [Ec]3 | AB[Ec] [EB]3 [EG]3 | [GB][FA][EG] [DF]3- [DF]2 [DF] | %11
w: |||
 [DF][CE][DF] [EG]6 | [EB]2 [EB] [Ec]3 [Ec]3 | AB[Ec] [EB]3 [EG]3 | %14
w: |||
 [GB][FA][EG] [DF]3- [DF]2 [DF] | FG[DF] E6- | E3 z3 z3 |] %17
w: |||
V:2
 x9 | x9 | x9 | x9 | x9 | x9 | x9 | x9 | x9 | .E3 z3 z3 | x9 | x9 | x9 | .E3 z3 z3 | x9 | %15
 .D3 z3 z3 | x9 |] %17
V:3
 G,2 A, B,3 B,3 | E2 B, B,3 B,3 | B,2 B, B,3 B,3 | B,2 B, B,6 | G,2 A, B,3 B,3 | E2 B, B,3 B,3 | %6
 B,2 B, B,3- B,2 B, | B,2 A, G,6 | G,2 G, A,3 A,3 | CB,A, G,3 B,3 | B,2 B, B,3- B,2 B, | %11
 B,2 B, B,6 | G,2 G, A,3 A,3 | CB,A, G,3 B,3 | B,2 B, B,3- B,2 B, | B,2 A, G,6- | G,3 z3 z3 |] %17
V:4
 E,2 E, E,3 E,3 | E,2 E, B,,3 B,,3 | B,,2 B,, B,,3 B,,3 | B,,2 B,, E,6 | E,2 E, E,3 E,3 | %5
 E,2 E, B,,3 B,,3 | B,,2 B,, B,,3- B,,2 B,, | B,,2 B,, E,6 | E,2 E, z3 z3 | A,,2 C, E,3 E,3 | %10
 E,2 E, B,,3- B,,2 B,, | B,,2 B,, E,6 | E,2 E, z3 z3 | A,,2 C, E,3 E,3 | E,2 E, B,,3- B,,2 B,, | %15
 B,,2 B,, E,6- | E,3 z3 z3 |] %17

